flaticon/user-interface/insert-1.svg

<svg xmlns="http://www.w3.org/2000/svg" width="32" height="32" viewBox="0 0 24 24">
    <path d="M 0 0.199219 L 0 23.800781 L 24 23.800781 L 24 0.199219 Z M 23.199219 23 L 0.800781 23 L 0.800781 1 L 23.199219 1 Z M 23.199219 23"/>
    <path d="M5.199219 4.601562L19.199219 4.601562C19.421875 4.601562 19.601562 4.421875 19.601562 4.199219 19.601562 3.980469 19.421875 3.800781 19.199219 3.800781L5.199219 3.800781C4.980469 3.800781 4.800781 3.980469 4.800781 4.199219 4.800781 4.421875 4.980469 4.601562 5.199219 4.601562zM5.199219 7.398438L19.199219 7.398438C19.421875 7.398438 19.601562 7.222656 19.601562 7 19.601562 6.777344 19.421875 6.601562 19.199219 6.601562L5.199219 6.601562C4.980469 6.601562 4.800781 6.777344 4.800781 7 4.800781 7.222656 4.980469 7.398438 5.199219 7.398438zM5.199219 11L12 11C12.222656 11 12.398438 10.820312 12.398438 10.601562 12.398438 10.378906 12.222656 10.199219 12 10.199219L5.199219 10.199219C4.980469 10.199219 4.800781 10.378906 4.800781 10.601562 4.800781 10.820312 4.980469 11 5.199219 11zM5.199219 13.800781L12 13.800781C12.222656 13.800781 12.398438 13.621094 12.398438 13.398438 12.398438 13.179688 12.222656 13 12 13L5.199219 13C4.980469 13 4.800781 13.179688 4.800781 13.398438 4.800781 13.621094 4.980469 13.800781 5.199219 13.800781zM5.199219 17.398438L19.199219 17.398438C19.421875 17.398438 19.601562 17.222656 19.601562 17 19.601562 16.777344 19.421875 16.601562 19.199219 16.601562L5.199219 16.601562C4.980469 16.601562 4.800781 16.777344 4.800781 17 4.800781 17.222656 4.980469 17.398438 5.199219 17.398438zM5.199219 20.199219L19.199219 20.199219C19.421875 20.199219 19.601562 20.019531 19.601562 19.800781 19.601562 19.578125 19.421875 19.398438 19.199219 19.398438L5.199219 19.398438C4.980469 19.398438 4.800781 19.578125 4.800781 19.800781 4.800781 20.019531 4.980469 20.199219 5.199219 20.199219zM18 8.929688L14.1875 12.199219 18 15.46875 18 13.800781 21.199219 13.800781 21.199219 10.601562 18 10.601562zM20.398438 11.398438L20.398438 13 17.199219 13 17.199219 13.730469 15.414062 12.199219 17.199219 10.667969 17.199219 11.398438zM20.398438 11.398438"/>
</svg>

<svg xmlns="http://www.w3.org/2000/svg" width="32" height="32" viewBox="0 0 24 24">
    <path d="M0 .2v23.6h24V.2zM23.2 23H.8V1h22.4zm0 0"/>
    <path d="M5.2 4.602h14a.401.401 0 0 0 0-.8L5.2 3.8a.4.4 0 0 0 0 .8zm0 0M5.2 7.398h14a.398.398 0 1 0 0-.796h-14a.398.398 0 1 0 0 .796zm0 0M5.2 11H12c.223 0 .398-.18.398-.398a.398.398 0 0 0-.398-.403H5.2a.401.401 0 0 0 0 .801zm0 0M5.2 13.8H12c.223 0 .398-.179.398-.402A.398.398 0 0 0 12 13H5.2a.4.4 0 0 0 0 .8zm0 0M5.2 17.398h14a.398.398 0 1 0 0-.796h-14a.398.398 0 1 0 0 .796zm0 0M5.2 20.2h14a.401.401 0 1 0 0-.802h-14a.401.401 0 0 0 0 .801zm0 0M18 8.93l-3.813 3.27L18 15.468V13.8h3.2v-3.2H18zm2.398 2.468V13H17.2v.73l-1.785-1.53 1.785-1.532v.73zm0 0"/>
</svg>
